X: 18
M:2/4
L:1/16
K:G
vdc"^Segno"|\
vB2vBuA vG2vGuF | EAGE D2vDuC | B,DGA BGFG | edBG A2vduc |
K:D
|:vFG|\
vA3vd u((3dcd) vf3vd u((3dcd) | \
ceba geBc |1 d2d2d2:|2 d^dfe =dc=cA "^Segno" |]


